X: 26882
T: Minnie Dempsey's
R: polka
M: 2/4
K: Cmajor
Gc A/B/c/A/|GE E/^F/G/E/|DA, A,/G,/A,|CA, A,/G,/A,|
Gc A/B/c/A/|GE E>E|DA, A,/G,/A,/C/|DC C2:|
Gc c/B/c/d/|e>e e/^f/g/e/|dB B/A/B/d/|cA A/^G/A|
=Gc c/B/c/d/|e>e e/a/g/e/|dB B/A/B/c/|dc c2:|

